logo/pug.svg

<?xml version="1.0" encoding="UTF-8" standalone="no"?>
<svg width="256px" height="256px" viewBox="0 0 256 256" version="1.1" xmlns="http://www.w3.org/2000/svg" xmlns:xlink="http://www.w3.org/1999/xlink" preserveAspectRatio="xMidYMid">
	<g>
		<circle fill="#F2F2F2" cx="128" cy="128" r="128"></circle>
		<path d="M166.493091,203.682909 C141.218909,212.992 113.477818,212.992 88.2036364,203.682909 C85.8763636,202.845091 84.0145455,200.098909 84.0145455,197.725091 L84.0145455,191.627636 C84.0145455,189.253818 85.8763636,188.090182 88.2036364,188.928 C113.477818,198.237091 141.218909,198.237091 166.493091,188.928 C168.820364,188.090182 170.682182,189.253818 170.682182,191.627636 L170.682182,197.725091 C170.635636,200.098909 168.773818,202.845091 166.493091,203.682909 L166.493091,203.682909 Z" fill="#ED1C24"></path>
		<path d="M166.493091,196.235636 C141.218909,209.175273 113.477818,209.175273 88.2036364,196.235636 C85.8763636,195.072 84.0145455,191.255273 84.0145455,187.950545 L84.0145455,179.525818 C84.0145455,176.221091 85.8763636,174.592 88.2036364,175.802182 C113.477818,188.741818 141.218909,188.741818 166.493091,175.802182 C168.820364,174.638545 170.682182,176.221091 170.682182,179.525818 L170.682182,187.950545 C170.635636,191.255273 168.773818,195.072 166.493091,196.235636 L166.493091,196.235636 Z" fill="#C1272D"></path>
		<g transform="translate(117.760000, 202.938182)">
			<ellipse fill="#C1272D" cx="9.58836364" cy="3.90981818" rx="3.584" ry="3.584"></ellipse>
			<ellipse fill="#FF931E" cx="9.58836364" cy="3.39781818" rx="3.072" ry="3.072"></ellipse>
			<ellipse fill="#FFB81E" cx="10.4727273" cy="4.46836364" rx="1.07054545" ry="1.07054545"></ellipse>
			<ellipse fill="#FF931E" cx="9.58836364" cy="15.5461818" rx="9.58836364" ry="9.58836364"></ellipse>
			<circle fill="#FFB81E" cx="9.58836364" cy="15.6392727" r="8.61090909"></circle>
			<path d="M12.1018182,12.8930909 C12.6138182,13.3585455 12.8930909,14.0101818 12.8930909,14.9410909 C12.8930909,15.872 12.6138182,16.5236364 12.1018182,16.9890909 C11.5432727,17.408 10.752,17.6407273 9.63490909,17.6407273 L8.65745455,17.6407273 L8.65745455,19.7352727 L6.98181818,19.7352727 L6.98181818,12.2414545 L9.63490909,12.2414545 C10.752,12.2414545 11.5898182,12.4276364 12.1018182,12.8930909 L12.1018182,12.8930909 Z M10.8916364,15.8254545 C11.0778182,15.5927273 11.1709091,15.2669091 11.1709091,14.848 C11.1709091,14.4290909 11.0312727,14.1032727 10.7985455,13.9170909 C10.5192727,13.7309091 10.1469091,13.6378182 9.58836364,13.6378182 L8.65745455,13.6378182 L8.65745455,16.1512727 L9.77454545,16.1512727 C10.3330909,16.1512727 10.7054545,16.0581818 10.8916364,15.8254545 L10.8916364,15.8254545 Z" fill="#FF931E"></path>
		</g>
		<path d="M205.032727,140.474182 C207.36,172.357818 172.869818,200.983273 127.813818,200.936727 C82.8043636,200.983273 48.2676364,172.357818 50.5949091,140.474182 C52.9221818,108.497455 87.5985455,82.1061818 127.906909,82.0596364 C168.261818,82.1061818 202.658909,108.497455 205.032727,140.474182 L205.032727,140.474182 Z" fill="#F7BD89"></path>
		<path d="M127.674182,77.5912727 C85.3178182,77.5912727 45.9869091,107.426909 53.4341818,152.855273 C54.9236364,157.044364 57.3905455,167.936 69.1665455,177.570909 C72.704,180.456727 78.8014545,182.877091 81.6872727,180.922182 C89.088,175.895273 75.9621818,161.466182 90.9498182,148.154182 L90.624,148.154182 C98.7694545,141.963636 110.312727,137.029818 127.581091,137.029818 C144.849455,137.029818 156.392727,141.963636 164.538182,148.154182 L164.212364,148.154182 C179.2,161.466182 166.120727,175.895273 173.474909,180.922182 C176.360727,182.877091 182.504727,180.456727 185.995636,177.570909 C197.771636,167.936 200.285091,157.044364 201.774545,152.855273 C209.221818,107.380364 170.030545,77.5912727 127.674182,77.5912727 L127.674182,77.5912727 Z" fill="#FBD5A0"></path>
		<path d="M164.119273,153.041455 C156.997818,144.290909 143.499636,135.819636 127.813818,135.819636 L127.674182,135.819636 L127.627636,135.819636 C111.895273,135.819636 98.3970909,144.290909 91.3221818,153.041455 C83.968,161.978182 86.6210909,165.794909 86.6210909,174.359273 C86.6210909,205.358545 97.4661818,196.328727 104.773818,200.052364 C112.221091,203.682909 119.761455,202.379636 127.674182,202.379636 L127.674182,202.379636 L127.813818,202.379636 C135.726545,202.379636 143.266909,203.682909 150.714182,200.005818 C157.975273,196.282182 168.866909,205.405091 168.866909,174.405818 C168.820364,165.888 171.473455,161.978182 164.119273,153.041455 L164.119273,153.041455 Z" fill="#000000"></path>
		<g transform="translate(62.370909, 123.810909)">
			<circle fill="#F7BD89" cx="13.0327273" cy="15.4530909" r="12.9861818"></circle>
			<circle fill="#000000" cx="14.1963636" cy="13.2654545" r="12.9861818"></circle>
			<circle fill="#FFFFFF" cx="17.5010909" cy="7.44727273" r="3.35127273"></circle>
		</g>
		<g transform="translate(165.701818, 123.810909)">
			<circle fill="#F7BD89" cx="13.9636364" cy="15.4530909" r="12.9861818"></circle>
			<circle fill="#000000" cx="13.2189091" cy="13.2654545" r="12.9861818"></circle>
			<circle fill="#FFFFFF" cx="16.5236364" cy="7.44727273" r="3.35127273"></circle>
		</g>
		<path d="M100.352,89.2276364 C100.352,89.2276364 56.3665455,96.8145455 54.5978182,149.364364 C54.5512727,150.155636 53.7134545,150.667636 53.0152727,150.248727 L51.6189091,149.410909 L50.5483636,135.633455 L52.5498182,107.52 L70.8887273,93.9752727 L87.3658182,87.3192727 L100.352,89.2276364 L100.352,89.2276364 Z" fill="#F7BD89"></path>
		<path d="M154.949818,89.2276364 C154.949818,89.2276364 198.935273,96.8145455 200.704,149.364364 C200.750545,150.155636 201.588364,150.667636 202.286545,150.248727 L203.682909,149.410909 L204.753455,135.633455 L202.752,107.52 L184.413091,93.9752727 L167.936,87.3192727 L154.949818,89.2276364 L154.949818,89.2276364 Z" fill="#F7BD89"></path>
		<path d="M126.752745,182.809821 L126.752745,156.299636 L128.68871,156.299636 L128.68871,182.747197 C131.541817,183.081575 135.248777,184.740247 138.798545,185.809455 C142.475636,187.112727 146.013091,187.624727 144.616727,187.810909 C139.776,187.997091 134.469818,186.181818 127.953455,186.274909 C121.390545,186.181818 116.084364,187.997091 111.290182,187.810909 C109.893818,187.578182 113.431273,187.066182 117.108364,185.809455 C120.473574,184.795837 123.944738,183.252455 126.752745,182.809821 Z M139.869091,147.362909 C141.405091,150.760727 136.098909,156.299636 127.674182,156.299636 C119.249455,156.299636 113.943273,150.760727 115.479273,147.362909 C116.968727,143.872 122.321455,142.754909 127.674182,142.708364 C133.026909,142.754909 138.379636,143.872 139.869091,147.362909 Z" fill="#4D4D4D"></path>
		<path d="M100.352,89.2276364 C100.352,89.2276364 48.5469091,96.3956364 53.0152727,147.828364 C53.248,150.434909 42.6821818,136.704 34.4901818,132.514909 C26.2981818,128.325818 26.5774545,114.781091 26.5774545,114.781091 C26.5774545,114.781091 26.4378182,91.1825455 59.5316364,84.2007273 C92.5789091,77.2654545 100.352,89.2276364 100.352,89.2276364 Z M154.949818,89.2276364 C154.949818,89.2276364 206.754909,96.3956364 202.286545,147.828364 C202.053818,150.434909 212.619636,136.704 220.811636,132.514909 C229.003636,128.325818 228.724364,114.781091 228.724364,114.781091 C228.724364,114.781091 228.864,91.1825455 195.770182,84.2007273 C162.722909,77.2654545 154.949818,89.2276364 154.949818,89.2276364 Z" fill="#000000"></path>
		<path d="M127.720727,126.277818 C111.616,126.277818 95.3250909,142.103273 98.7229091,140.334545 C105.006545,137.029818 108.637091,131.211636 127.720727,131.211636 C146.804364,131.211636 150.388364,137.029818 156.718545,140.334545 C160.116364,142.103273 143.825455,126.277818 127.720727,126.277818 L127.720727,126.277818 Z" fill="#F7BD89"></path>
		<path d="M127.720727,119.342545 C115.479273,119.342545 103.144727,131.351273 105.704727,130.001455 C110.498909,127.488 116.642909,123.066182 127.720727,123.066182 C138.798545,123.066182 144.942545,127.488 149.736727,130.001455 C152.296727,131.351273 139.962182,119.342545 127.720727,119.342545 L127.720727,119.342545 Z" fill="#F7BD89"></path>
		<path d="M127.627636,80.384 C114.129455,80.384 100.445091,88.1105455 103.284364,87.2261818 C108.590545,85.5970909 115.386182,82.7578182 127.627636,82.7578182 C139.869091,82.7578182 146.664727,85.5970909 151.970909,87.2261818 C154.810182,88.1105455 141.172364,80.384 127.627636,80.384 L127.627636,80.384 Z" fill="#F7BD89"></path>
		<path d="M130.746182,145.501091 C131.118545,146.338909 129.815273,147.688727 127.720727,147.688727 C125.626182,147.688727 124.322909,146.338909 124.695273,145.501091 C125.067636,144.663273 126.370909,144.384 127.720727,144.337455 C129.024,144.337455 130.373818,144.616727 130.746182,145.501091 L130.746182,145.501091 Z" fill="#808080"></path>
	</g>
</svg>

<svg viewBox="0 0 256 256" xmlns="http://www.w3.org/2000/svg"><path fill="#F2F2F2" d="M128 0a128 128 0 1 0 0 256 128 128 0 1 0 0-256Z"/><path fill="#ED1C24" d="M166.49 203.68c-25.28 9.3-53.02 9.3-78.29 0 -2.33-.84-4.19-3.59-4.19-5.96v-6.1c0-2.38 1.86-3.54 4.18-2.7 25.27 9.3 53.01 9.3 78.28 0 2.32-.84 4.18.32 4.18 2.69v6.09c-.05 2.37-1.91 5.12-4.19 5.95v0Z"/><path fill="#C1272D" d="M166.49 196.23c-25.28 12.93-53.02 12.93-78.29 0 -2.33-1.17-4.19-4.99-4.19-8.29v-8.43c0-3.31 1.86-4.94 4.18-3.73 25.27 12.93 53.01 12.93 78.28 0 2.32-1.17 4.18.41 4.18 3.72v8.42c-.05 3.3-1.91 7.12-4.19 8.28v0Z"/><g transform="translate(117.76 202.938)"><path fill="#C1272D" d="M9.58.32a3.58 3.58 0 1 0 0 7.16 3.58 3.58 0 1 0 0-7.17Z"/><path fill="#FF931E" d="M9.58.32a3.07 3.07 0 1 0 0 6.14 3.07 3.07 0 1 0 0-6.15Z"/><path fill="#FFB81E" d="M10.47 3.39a1.07 1.07 0 1 0 0 2.14 1.07 1.07 0 1 0 0-2.15Z"/><path fill="#FF931E" d="M9.58 5.95a9.58 9.58 0 1 0 0 19.17 9.58 9.58 0 1 0 0-19.18Z"/><path fill="#FFB81E" d="M9.58 7.02a8.61 8.61 0 1 0 0 17.22 8.61 8.61 0 1 0 0-17.23Z"/><path fill="#FF931E" d="M12.1 12.89c.51.46.79 1.11.79 2.04 0 .93-.28 1.58-.8 2.04 -.56.41-1.35.65-2.47.65h-.98v2.09H6.96v-7.5h2.65c1.11 0 1.95.18 2.46.65v0Zm-1.22 2.93c.18-.24.27-.56.27-.98 0-.42-.14-.75-.38-.94 -.28-.19-.66-.28-1.22-.28h-.94v2.51h1.11c.55 0 .93-.1 1.11-.33v0Z"/></g><path fill="#F7BD89" d="M205.03 140.47c2.32 31.88-32.17 60.5-77.22 60.46 -45.01.04-79.55-28.58-77.22-60.47 2.32-31.98 37-58.37 77.31-58.42 40.35.04 74.75 26.43 77.12 58.41v0Z"/><path fill="#FBD5A0" d="M127.67 77.59c-42.36 0-81.69 29.83-74.24 75.26 1.48 4.18 3.95 15.08 15.73 24.71 3.53 2.88 9.63 5.3 12.52 3.35 7.4-5.03-5.73-19.46 9.26-32.77h-.33c8.14-6.2 19.68-11.13 36.95-11.13 17.26 0 28.81 4.93 36.95 11.12h-.33c14.98 13.31 1.9 27.74 9.26 32.76 2.88 1.95 9.02-.47 12.52-3.36 11.77-9.64 14.28-20.53 15.77-24.72 7.44-45.48-31.744-75.27-74.11-75.27v0Z"/><path d="M164.11 153.04c-7.13-8.76-20.62-17.23-36.31-17.23h-.14 -.05c-15.74 0-29.24 8.47-36.31 17.22 -7.36 8.93-4.71 12.75-4.71 21.31 0 30.99 10.84 21.96 18.15 25.69 7.44 3.63 14.98 2.32 22.9 2.32v0h.13c7.91 0 15.45 1.3 22.9-2.38 7.26-3.73 18.15 5.39 18.15-25.6 -.05-8.52 2.6-12.43-4.75-21.37v0Z"/><g transform="translate(62.3709 123.811)"><path fill="#F7BD89" d="M13.03 2.46a12.98 12.98 0 1 0 0 25.97 12.98 12.98 0 1 0 0-25.98Z"/><path d="M14.19.27a12.98 12.98 0 1 0 0 25.97 12.98 12.98 0 1 0 0-25.98Z"/><path fill="#FFF" d="M17.5 4.09a3.35 3.35 0 1 0 0 6.7 3.35 3.35 0 1 0 0-6.71Z"/></g><g transform="translate(165.702 123.811)"><path fill="#F7BD89" d="M13.96 2.46a12.98 12.98 0 1 0 0 25.97 12.98 12.98 0 1 0 0-25.98Z"/><path d="M13.21.27a12.98 12.98 0 1 0 0 25.97 12.98 12.98 0 1 0 0-25.98Z"/><path fill="#FFF" d="M16.52 4.09a3.35 3.35 0 1 0 0 6.7 3.35 3.35 0 1 0 0-6.71Z"/></g><g fill="#F7BD89"><path d="M100.35 89.22s-43.99 7.58-45.76 60.13c-.05.79-.89 1.3-1.59.88l-1.4-.84 -1.08-13.78 2-28.12 18.33-13.55 16.47-6.66 12.98 1.9v0Z"/><path d="M154.94 89.22s43.98 7.58 45.75 60.13c.04.79.88 1.3 1.58.88l1.39-.84 1.07-13.78 -2.01-28.12 -18.34-13.55 -16.48-6.66 -12.99 1.9v0Z"/></g><path fill="#4D4D4D" d="M126.75 182.8v-26.52h1.93v26.44c2.85.33 6.56 1.99 10.1 3.06 3.67 1.3 7.21 1.81 5.81 2 -4.85.18-10.15-1.63-16.67-1.54 -6.57-.1-11.87 1.72-16.67 1.53 -1.4-.24 2.14-.75 5.81-2.01 3.36-1.02 6.83-2.56 9.64-3Zm13.11-35.45c1.53 3.39-3.78 8.93-12.2 8.93 -8.43 0-13.74-5.54-12.2-8.94 1.48-3.5 6.84-4.61 12.19-4.66 5.35.04 10.7 1.16 12.19 4.65Z"/><path d="M100.35 89.22s-51.81 7.16-47.34 58.6c.23 2.6-10.34-11.13-18.53-15.32 -8.2-4.19-7.92-17.74-7.92-17.74s-.14-23.6 32.95-30.59c33.04-6.94 40.82 5.02 40.82 5.02Zm54.59 0s51.8 7.16 47.33 58.6c-.24 2.6 10.33-11.13 18.52-15.32 8.19-4.19 7.91-17.74 7.91-17.74s.13-23.6-32.96-30.59c-33.05-6.94-40.83 5.02-40.83 5.02Z"/><g fill="#F7BD89"><path d="M127.72 126.27c-16.11 0-32.4 15.82-29 14.05 6.28-3.31 9.91-9.13 28.99-9.13s22.66 5.81 28.99 9.12c3.39 1.76-12.9-14.06-29-14.06v0Z"/><path d="M127.72 119.34c-12.25 0-24.58 12-22.02 10.65 4.79-2.52 10.93-6.94 22.01-6.94 11.07 0 17.22 4.42 22.01 6.93 2.56 1.34-9.78-10.66-22.02-10.66v0Z"/><path d="M127.62 80.384c-13.5 0-27.19 7.72-24.35 6.84 5.3-1.63 12.1-4.47 24.34-4.47s19.03 2.83 24.34 4.46c2.83.88-10.8-6.85-24.35-6.85v0Z"/></g><path fill="#808080" d="M130.74 145.5c.37.83-.94 2.18-3.03 2.18 -2.1 0-3.4-1.35-3.03-2.19 .37-.84 1.67-1.12 3.02-1.17 1.3 0 2.65.27 3.02 1.16v0Z"/></svg>
